X: 10671
T: Down The Broom
R: reel
M: 4/4
K: Adorian
|:EAAG A2Bd|e2ed egga|gedB GABd|edBA GEDG|
EAAG A2Bd|e2ed egga|gedB GABd|1 eBdB A2AG:|2 eBdB A3g||
|:a2ea a2ea|a2ba gede|gagd g2Bd|gaba gede|
abae abae|gaba gede|gedB GABd|1 eBdB A3g:|2 eBdB A2AG||

